X: 478
T: A Whack At The Whigs
R: slip jig
M: 9/8
K: Gdorian
|:d|cAG GDG G2 d|cAG G^FG Add|cAG GDG G2 A|^FGA fed cA:|
|:G|de^f gaf g2 f|de^f gbg afd|1 cde fge f2 d|cde fed cAF|
[2 bag ag^f g2 d|cde fed cA||
|:G|BGB A^FA G2 A|BAB GBd cBA|1 BGB A^FA G2 A|FGA fed cA:|
[2 fdf ece d2 A|FGA fed cA||

